X:633
T:Round Hill Wedding
C:Colin Hume, 1997
L:1/4
M:3/4
%%MIDI beat 100 95 80
S:Colin Hume's website,  colinhume.com  - chords can also be printed below the stave.
Q:1/4=120
H:For the wedding of Albert Blank and Nancy DeVore
K:G
P:A
[| D | "G"d2c/d/ | "Em"BG2 | "Am"c2B/c/ | "D"A2D/E/ | "Bm"F3/E/F | "Em"GB3/G/ | "Am"Ace | "D7"d2D |
P:B
"G"d2c/d/ | "Em"BG2 | "Am"c2B/c/ | "D"A2D/E/ | "Bm"F3/E/F | "C"GE2 | "D7"DA3/G/ | "G"G3 |
P:C
"Em"GBg | "Bm"fd2 | "C"EGe | "D"d2 "B7/D#"B/A/ | "Em"GBg | "Bm"fd2 | "A7"ef3/e/ | "D"d2D |
P:D
"D7"d2c/d/ | "G"BG2 | "E7/G#"e2d/e/ | "Am"cA2 | "Cm"c2B/c/ | "G/D"dBG | "D7"DA3/G/ | "G"G2 |]

